X:1
T:16. Glück zum neuen Jahr.
T:16. Glück zum neuen Jahr.
T:Ludwig van Beethoven 
C:Ludwig van Beethoven
%%score [ 1 2 3 4 ]
L:1/8
Q:1/4=120
M:3/4
K:Eb
V:1 treble nm="SOPRANO."
V:2 treble nm="ALTO."
V:3 treble-8 nm="TENORE."
V:4 bass nm="BASSO."
V:1
"^Vierstimmiger (freier) Canon." z6 | z6 | z6 | z6 | z6 | z6 |!f! e f g2 e2 | c6 | d e f2 d2 | B6 | %10
w: ||||||Glück zum neu- en|Jahr,|Glück zum neu- en|Jahr,|
 z B A B G e | c c c2 z2 | f2 z2 z2 | e2 z2 e2 | e e c A F d | d2 d2 z2 | e e g e c2 | A G F B G2 | %18
w: zum neu- en Jahr, zum|neu- en Jahr,|Glück,|Glück, zum|neu- en Jahr, zum neu- en|Jahr, Glück,|Glück zum neu- en Jahr,|Glück zum neu- en Jahr,|
 !^!e2 z2 z2 |] %19
w: Glück!|
V:2
 z6 | z6 | z6 | z6 |!f! A B c2 A2 | F6 | z E D E c B | =A G F G F E | D2 z2 z2 | D E F2 D2 | _D6 | %11
w: ||||Glück zum neu- en|Jahr,|zum neu- en Jahr, zum|neu- en Jahr, zum neu- en|Jahr,|Glück zum neu- en|Jahr,|
 z6 | z A G A F B | G G G2 z2 | G G A A A F | F2 F2 z2 | G A B G E2 | F E D D E2 | !^!G2 z2 z2 |] %19
w: |zum neu- en Jahr, zum|neu- en Jahr,|Glück zum neu- en, neu- en|Jahr, Glück,|Glück zum neu- en Jahr,|Glück zum neu- en Jahr,|Glück!|
V:3
 z6 |!f! e f g2 e2 | c6 | z f e f d d | e2 e2 E2 | A A A3 B | B B B2 B2 | c c c2 =A2 | _A2 z2 z2 | %9
w: |Glück zum neu- en|Jahr,|zum neu- en Jahr, zum|neu- en, zum|neu- en Jahr, zum|neu- en Jahr, Glück,|Glück zum neu- en|Jahr,|
 A B c2 A2 | G6 | z A G A F f | d B B2 z2 | c2 z2 z2 | c c c c B B | B2 B2 z2 | B A G B c2 | %17
w: Glück zum neu- en|Jahr,|zum neu- en Jahr, zum|neu- en Jahr,|Glück,|Glück zum neu- en, neu- en|Jahr, Glück,|Glück zum neu- en Jahr,|
 c c d B B2 | !^!B2 z2 z2 |] %19
w: Glück zum neu- en Jahr,|Glück!|
V:4
!f! G, A, B,2 G,2 | E,6 | z A, G, A, F, E, | D,2 C,2 B,, B,, | C,4 C,2 | z D, C, D, B,, A, | %6
w: Glück zum neu- en|Jahr,|zum neu- en Jahr, zum|neu- en Jahr, zum|neu- en|zum neu- en Jahr, zum|
 G, G, G,2 G,2 | =A, A, A,2 F,2 | F,2 z2 z2 | F, G, _A,2 F,2 | E,6 | z6 | z6 | z E, D, E, C, C | %14
w: neu- en Jahr, Glück,|Glück zum neu- en|Jahr.|Glück zum neu- en|Jahr,|||zum neu- en Jahr, zum|
 C C A, F, D, B, | A,2 A,2 z2 | G, F, E, G, A,2 | A, =A, B, B,, E,2 | !^!E,2 z2 z2 |] %19
w: neu- en Jahr, zum neu- en|Jahr, Glück,|Glück zum neu- en Jahr,|Glück zum neu- en Jahr,|Glück!|

